X:25
T:Lads of Air
M:C|
L:1/8
K:C
g|Te>dcd   cBcG|Te>dBd     e2 (e/f/g)|Te>dcd    cGcG|AcGE        TD2C:|
g|c/c/c ga gede| c/c/c ga Tg2  e2    | c/c/c ga gede|fg a/g/f/e/ Td2c:|

% @@@@@@@@@@@@@@@@@@@@@@@@@@@@@@@@@@

%% 26. ===============================================================================

% @THE KEY OF THE@
%    &Cellar.&
%
% *FIRST Man sett to 2d Woman, and turn your Partner.  First Woman the same.  *First
% Couple lead down, and go three hands round with 3d Woman.  Then three hands round
% with 2d Man.  *SETT across, & turn your own Partner twice.  *Four hands quite round
% with 2d Couple.  Lead up to the top, & cast off.

% @@@@@@@@@@@@@@@@@@@@@@@@@@@@@@@@@@

